icons/glyphs/glyph-cmake.svg

<?xml version="1.0" encoding="UTF-8" standalone="no"?><svg height="16mm" viewBox="0 0 16 16" width="16mm" xmlns="http://www.w3.org/2000/svg"><sodipodi:namedview/><metadata><rdf:RDF><cc:Work><dc:format>image/svg+xml</dc:format><dc:type/><dc:title/></cc:Work></rdf:RDF></metadata><path d="m8.5426989.12788915 1.0946741 12.42706785 6.362627 2.500787zm-1.085397.2716809-7.45730185 14.92785495 8.12656385-7.3393519zm-2.1177839 11.38672995-4.52182495 4.084486 14.91195095.001325zm-4.50989765 4.057981-.027831.02651h.014578z" fill="#d0d0d0" fill-rule="evenodd" stroke-width=".678539"/></svg>

<?xml version="1.0" encoding="UTF-8" standalone="no"?>
<!-- Created with Inkscape (http://www.inkscape.org/) -->

<svg
   xmlns:dc="http://purl.org/dc/elements/1.1/"
   xmlns:cc="http://creativecommons.org/ns#"
   xmlns:rdf="http://www.w3.org/1999/02/22-rdf-syntax-ns#"
   xmlns:svg="http://www.w3.org/2000/svg"
   xmlns="http://www.w3.org/2000/svg"
   xmlns:sodipodi="http://sodipodi.sourceforge.net/DTD/sodipodi-0.dtd"
   xmlns:inkscape="http://www.inkscape.org/namespaces/inkscape"
   width="16mm"
   height="16mm"
   viewBox="0 0 16 16"
   version="1.1"
   id="svg8"
   inkscape:version="0.92+devel (bc9c9b4297, 2017-07-16, custom)"
   sodipodi:docname="glyph-cmake.svg">
  <defs
     id="defs2">
    <linearGradient
       gradientTransform="translate(366,182.36)"
       x2="54"
       gradientUnits="userSpaceOnUse"
       y2="31"
       x1="40"
       y1="17"
       id="a">
      <stop
         id="stop812"
         stop-color="#060606" />
      <stop
         id="stop814"
         stop-opacity="0"
         offset="1" />
    </linearGradient>
    <linearGradient
       gradientTransform="translate(318,-150)"
       x2="0"
       gradientUnits="userSpaceOnUse"
       y2="336.36"
       y1="392.36"
       id="b">
      <stop
         id="stop817"
         stop-opacity="0"
         stop-color="#ffffff" />
      <stop
         id="stop819"
         stop-opacity=".2"
         stop-color="#ffffff"
         offset="1" />
    </linearGradient>
    <path
       d="m376 243.36v-58h30l14 14v44h-14z"
       id="c" />
  </defs>
  <sodipodi:namedview
     id="base"
     pagecolor="#002466"
     bordercolor="#ffffff"
     borderopacity="0.38039216"
     inkscape:pageopacity="1"
     inkscape:pageshadow="2"
     inkscape:zoom="7.1685545"
     inkscape:cx="30.23622"
     inkscape:cy="30.23622"
     inkscape:document-units="mm"
     inkscape:current-layer="svg8"
     inkscape:document-rotation="0"
     showgrid="false"
     inkscape:showpageshadow="false"
     borderlayer="true"
     inkscape:window-width="1920"
     inkscape:window-height="1051"
     inkscape:window-x="0"
     inkscape:window-y="0"
     inkscape:window-maximized="1"
     showguides="false" />
  <metadata
     id="metadata5">
    <rdf:RDF>
      <cc:Work
         rdf:about="">
        <dc:format>image/svg+xml</dc:format>
        <dc:type
           rdf:resource="http://purl.org/dc/dcmitype/StillImage" />
        <dc:title></dc:title>
      </cc:Work>
    </rdf:RDF>
  </metadata>
  <path
     style="fill:#d0d0d0;fill-rule:evenodd;stroke-width:0.6785388"
     d="M 8.5426989,0.12788915 9.637373,12.554957 16,15.055744 Z M 7.4573019,0.39957005 5e-8,15.327425 8.1265639,7.9880731 Z M 5.339518,11.7863 0.81769305,15.870786 15.729644,15.872111 Z m -4.50989765,4.057981 -0.027831,0.02651 h 0.014578 z"
     id="path837"
     inkscape:connector-curvature="0"
     inkscape:label="#" />
</svg>
